X: 83
T: No_17_Second_Song.krn
N: Derived from No_17_Second_Song.krn
%%abc-version 2.0
%%abcx-abcm2ps-target-version 5.9.1 (29 Sep 2008)
%%abc-creator hum2abc beta
%%abcx-conversion-date 2019/03/15 08:29:13
%%humdrum-veritas 3576560001
%%humdrum-veritas-data 1882101444
%%linebreak <none>
%%barnumbers 0
L: 1/4
M: 3/4
%%staves {1 2}
V: 1 clef=bass
V: 2 clef=bass
K: F
[V:1] C/C/ [I:setbarnb 1]| 
[V:2] z | 
[V:1] CB,A, | 
[V:2] G,,/G,,/ G,,/G,,/ G,,/G,,/ | 
[V:1] A,2A, | 
[V:2] z3 | 
[V:1] A,A,A, ]|:  
[V:2] z3 ]|:  
[V:1] A,2A, | 
[V:2] z3 | 
[V:1] A,F,F, | 
[V:2] z3 | 
[V:1] F,3/F,/F,- | 
[V:2] z3 | 
[V:1] F,A,A, | 
[V:2] z3 | 
[V:1] A,F,F, | 
[V:2] z3 | 
[V:1] F,2F, | 
[V:2] z3 | 
[V:1] F,F,D, | 
[V:2] z3 | 
[V:1] F,2F, | 
[V:2] z3 | 
[V:1] F,D,D, | 
[V:2] z3 | 
[V:1] D,3/D,/D,- | 
[V:2] z3 | 
[V:1] D,D,D, | 
[V:2] z3 | 
[V:1] D,F,F, | 
[V:2] z3 | 
[V:1] F,2F, | 
[V:2] z3 | 
[V:1] F,F,F, | 
[V:2] z3 | 
[V:1] F,2F, | 
[V:2] z3 | 
[V:1] F,F,F, | 
[V:2] z3 | 
[V:1] F,2C/C/ | 
[V:2] z3 | 
[V:1] C/A,/A,A, | 
[V:2] z3 | 
[V:1] A,2A, | 
[V:2] z3 | 
[V:1] A,A,A, :|]  
[V:2] z3 :|]  



